icons/circle/48/gradle.svg

<?xml version="1.0" encoding="UTF-8"?>
<svg id="svg77" version="1.1" viewBox="0 0 48 48" xmlns="http://www.w3.org/2000/svg" xmlns:cc="http://creativecommons.org/ns#" xmlns:dc="http://purl.org/dc/elements/1.1/" xmlns:rdf="http://www.w3.org/1999/02/22-rdf-syntax-ns#">
 <metadata id="metadata81">
  <rdf:RDF>
   <cc:Work rdf:about="">
    <dc:format>image/svg+xml</dc:format>
    <dc:type rdf:resource="http://purl.org/dc/dcmitype/StillImage"/>
    <dc:title/>
   </cc:Work>
  </rdf:RDF>
 </metadata>
 <defs id="defs7">
  <linearGradient id="linearGradient3764" x1="1" x2="47" gradientTransform="matrix(0 -1 1 0 -1.5e-6 48)" gradientUnits="userSpaceOnUse">
   <stop id="stop2" style="stop-color:#f8f5c4" offset="0"/>
   <stop id="stop4" style="stop-color:#faf8d6" offset="1"/>
  </linearGradient>
 </defs>
 <g id="g15">
  <path id="path9" d="m36.31 5c5.859 4.062 9.688 10.831 9.688 18.5 0 12.426-10.07 22.5-22.5 22.5-7.669 0-14.438-3.828-18.5-9.688 1.037 1.822 2.306 3.499 3.781 4.969 4.085 3.712 9.514 5.969 15.469 5.969 12.703 0 23-10.298 23-23 0-5.954-2.256-11.384-5.969-15.469-1.469-1.475-3.147-2.744-4.969-3.781zm4.969 3.781c3.854 4.113 6.219 9.637 6.219 15.719 0 12.703-10.297 23-23 23-6.081 0-11.606-2.364-15.719-6.219 4.16 4.144 9.883 6.719 16.219 6.719 12.703 0 23-10.298 23-23 0-6.335-2.575-12.06-6.719-16.219z" style="opacity:.05"/>
  <path id="path11" d="m41.28 8.781c3.712 4.085 5.969 9.514 5.969 15.469 0 12.703-10.297 23-23 23-5.954 0-11.384-2.256-15.469-5.969 4.113 3.854 9.637 6.219 15.719 6.219 12.703 0 23-10.298 23-23 0-6.081-2.364-11.606-6.219-15.719z" style="opacity:.1"/>
  <path id="path13" d="m31.25 2.375c8.615 3.154 14.75 11.417 14.75 21.13 0 12.426-10.07 22.5-22.5 22.5-9.708 0-17.971-6.135-21.12-14.75a23 23 0 0 0 44.875 -7 23 23 0 0 0 -16 -21.875z" style="opacity:.2"/>
 </g>
 <g id="g19">
  <path id="path17" d="m24 1c12.703 0 23 10.297 23 23s-10.297 23-23 23-23-10.297-23-23 10.297-23 23-23z" style="fill:url(#linearGradient3764)"/>
 </g>
 <g id="g75">
  <path id="path73" d="m40.03 7.531c3.712 4.084 5.969 9.514 5.969 15.469 0 12.703-10.297 23-23 23-5.954 0-11.384-2.256-15.469-5.969 4.178 4.291 10.01 6.969 16.469 6.969 12.703 0 23-10.298 23-23 0-6.462-2.677-12.291-6.969-16.469z" style="opacity:.1"/>
 </g>
 <path id="path4568" d="m25 10c-1.9542-1e-3 -3.8889 0.38913-5.6953 1.1348l2.1953 3.8652h9.5l4.3496 8h4.498c-1.0006-7.4373-7.3433-12.996-14.848-13zm-9.1602 3.1328c-3.6797 2.8377-5.8386 7.2204-5.8398 11.867-0.0022 8.2843 6.7157 15.004 15 15 7.505-4e-3 13.849-5.562 14.85-13h-4.5l-4.3496 8h-12l-5.5-10 4.5-8zm9.1602 6.8672a5 5 0 0 0 -5 5 5 5 0 0 0 5 5 5 5 0 0 0 5 -5 5 5 0 0 0 -5 -5z" style="opacity:.1"/>
 <path id="path4491" d="m14.84 12.133c-3.6797 2.8376-5.8386 7.2204-5.8398 11.867-0.0022 8.2843 6.7157 15.004 15 15 7.505-4e-3 13.849-5.562 14.85-13h-4.5l-4.3496 7.9994h-12l-5.5-10 4.5-8z" style="fill:#69b957"/>
 <circle id="path4493" cx="24" cy="23.999" r="5" style="fill:#00663f"/>
 <path id="path4509" d="m24 9c-1.9542-1e-3 -3.8889 0.38913-5.6953 1.1348l2.1953 3.8646h9.5l4.3496 8.0006h4.498c-1.0006-7.4373-7.3433-12.996-14.848-13z" style="fill:#00663f"/>
</svg>

<svg viewBox="0 0 48 48" xmlns="http://www.w3.org/2000/svg">
  <defs>
    <linearGradient id="a" x1="1" x2="47" gradientTransform="rotate(-90 24 24)" gradientUnits="userSpaceOnUse">
      <stop offset="0" stop-color="#f8f5c4"/>
      <stop offset="1" stop-color="#faf8d6"/>
    </linearGradient>
  </defs>
  <path d="M36.31 5c5.859 4.062 9.688 10.831 9.688 18.5 0 12.426-10.07 22.5-22.5 22.5-7.669 0-14.438-3.828-18.5-9.688a23.24 23.24 0 0 0 3.781 4.969 22.923 22.923 0 0 0 15.469 5.969c12.703 0 23-10.298 23-23a22.92 22.92 0 0 0-5.969-15.469A23.216 23.216 0 0 0 36.31 5zm4.969 3.781A22.911 22.911 0 0 1 47.498 24.5c0 12.703-10.297 23-23 23a22.909 22.909 0 0 1-15.719-6.219C12.939 45.425 18.662 48 24.998 48c12.703 0 23-10.298 23-23 0-6.335-2.575-12.06-6.719-16.219z" opacity=".05"/>
  <path d="M41.28 8.781a22.923 22.923 0 0 1 5.969 15.469c0 12.703-10.297 23-23 23A22.92 22.92 0 0 1 8.78 41.281 22.911 22.911 0 0 0 24.499 47.5c12.703 0 23-10.298 23-23A22.909 22.909 0 0 0 41.28 8.781z" opacity=".1"/>
  <path d="M31.25 2.375C39.865 5.529 46 13.792 46 23.505c0 12.426-10.07 22.5-22.5 22.5-9.708 0-17.971-6.135-21.12-14.75a23 23 0 0 0 44.875-7 23 23 0 0 0-16-21.875z" opacity=".2"/>
  <path d="M24 1c12.703 0 23 10.297 23 23S36.703 47 24 47 1 36.703 1 24 11.297 1 24 1z" fill="url(#a)"/>
  <path d="M40.03 7.531A22.922 22.922 0 0 1 45.999 23c0 12.703-10.297 23-23 23A22.92 22.92 0 0 1 7.53 40.031C11.708 44.322 17.54 47 23.999 47c12.703 0 23-10.298 23-23 0-6.462-2.677-12.291-6.969-16.469z" opacity=".1"/>
  <path d="M25 10a14.912 14.912 0 0 0-5.695 1.135L21.5 15H31l4.35 8h4.498C38.847 15.563 32.504 10.004 25 10zm-9.16 3.133A14.993 14.993 0 0 0 25 40c7.505-.004 13.849-5.562 14.85-13h-4.5L31 35H19l-5.5-10 4.5-8zM25 20a5 5 0 0 0-5 5 5 5 0 0 0 5 5 5 5 0 0 0 5-5 5 5 0 0 0-5-5z" opacity=".1"/>
  <path d="M14.84 12.133A14.993 14.993 0 0 0 9 24c-.002 8.284 6.716 15.004 15 15 7.505-.004 13.85-5.562 14.85-13h-4.5L30 34H18l-5.5-10 4.5-8z" fill="#69b957"/>
  <circle cx="24" cy="23.999" r="5" fill="#00663f"/>
  <path d="M24 9a14.912 14.912 0 0 0-5.695 1.135l2.195 3.864H30L34.35 22h4.498C37.847 14.563 31.504 9.004 24 9z" fill="#00663f"/>
</svg>
